icons/op-assigned-to-me-24.svg

<svg width="24" height="24" viewBox="0 0 24 24" fill="none" xmlns="http://www.w3.org/2000/svg">
<path d="M18.803 17.5938C18.5294 17.1562 17.5869 16.8438 16.6444 16.4375C15.7019 16.0312 15.4891 15.9062 15.4891 15.9062V14.9375C15.4891 14.9375 15.8235 14.6562 15.9451 13.7812C16.1579 13.8438 16.4011 13.4375 16.4011 13.2188C16.4011 13 16.3707 12.4375 16.0971 12.5C16.1579 12.0625 16.1883 11.6562 16.1883 11.4688C16.0971 10.6875 15.3978 9.90625 14.3033 9.90625C13.2088 9.90625 12.5096 10.6875 12.4487 11.4688C12.4183 11.6562 12.4487 12.0625 12.5096 12.5C12.2359 12.4375 12.2055 13 12.2055 13.2188C12.2359 13.4375 12.4487 13.8438 12.6616 13.7812C12.7832 14.6562 13.148 14.9375 13.148 14.9375L13.1176 15.9062C13.1176 15.9062 12.9048 16.0312 11.9623 16.4375C11.0198 16.8438 10.0773 17.1562 9.80368 17.5938C9.56046 18 9.62126 20 9.62126 20H18.9854C18.9854 20 19.0766 18.0312 18.803 17.5938ZM12.7528 5.4375L15.9451 8.71875L16.9484 7.71875L13.3608 4H5V20H8.07071V18.5625H6.39854V5.4375H12.7528Z" fill="black"/>
</svg>

<svg xmlns="http://www.w3.org/2000/svg" width="24" height="24" viewBox="0 0 24 24"><path d="M18.803 17.594c-.274-.438-1.216-.75-2.159-1.156-.942-.407-1.155-.532-1.155-.532v-.968s.334-.282.456-1.157c.213.063.456-.343.456-.562 0-.219-.03-.781-.304-.719a8.92 8.92 0 0 0 .091-1.031c-.091-.781-.79-1.563-1.885-1.563-1.094 0-1.793.782-1.854 1.563-.031.187 0 .593.061 1.031-.274-.062-.304.5-.304.719.03.219.243.625.456.562.121.875.486 1.157.486 1.157l-.03.968s-.213.125-1.156.532c-.942.406-1.885.718-2.158 1.156C9.56 18 9.621 20 9.621 20h9.364s.092-1.969-.182-2.406Zm-6.05-12.156 3.192 3.281 1.003-1L13.361 4H5v16h3.071v-1.438H6.399V5.438h6.354Z"/></svg>
